swiss/communes/0157.svg

<?xml version="1.0" encoding="UTF-8" standalone="no"?>
<!-- Created with Inkscape (http://www.inkscape.org/) -->
<svg
   xmlns:svg="http://www.w3.org/2000/svg"
   xmlns="http://www.w3.org/2000/svg"
   version="1.0"
   width="212.51463"
   height="248.92773"
   id="svg2780">
  <defs
     id="defs2782" />
  <g
     transform="translate(-13.644406,-801.31095)"
     id="layer1">
    <path
       d="M 14.644406,802.31095 L 18.471939,963.10112 C 21.205884,1077.9512 218.59754,1077.9512 221.3315,963.10112 L 225.15904,802.31095 L 14.644406,802.31095 z "
       style="fill:#008bd1;fill-opacity:1;fill-rule:evenodd;stroke:#000000;stroke-width:1.99999988;stroke-linecap:butt;stroke-miterlimit:4;stroke-dashoffset:0;stroke-opacity:1"
       id="path3282" />
    <path
       d="M 81.405475,180.1936 C 79.277213,180.74696 78.801759,179.93433 78.280932,178.38872 C 77.786684,176.92199 75.782339,178.88267 75.150292,180.89841 C 73.827039,172.31115 88.571035,171.55968 94.70875,170.67867"
       transform="translate(0,804.33069)"
       style="opacity:1;color:#000000;fill:#d80025;fill-opacity:1;fill-rule:evenodd;stroke:#000000;stroke-width:0.99921262;stroke-linecap:butt;stroke-linejoin:round;marker:none;marker-start:none;marker-mid:none;marker-end:none;stroke-miterlimit:4;stroke-dasharray:none;stroke-dashoffset:0;stroke-opacity:1;visibility:visible;display:inline;overflow:visible;enable-background:accumulate"
       id="path5182" />
    <path
       d="M 105.59681,839.75896 C 103.3364,854.72212 79.942728,868.28021 72.419156,880.21251 C 73.49256,880.1215 74.871632,879.11988 76.067796,878.27429 C 73.32018,883.86835 71.513204,888.95677 69.952323,894.4849 C 70.721944,894.30574 71.927643,893.12983 72.572671,892.45229 C 70.891702,896.71067 71.141938,910.87426 71.890549,914.57197 C 72.844546,912.58213 73.300168,910.34311 74.004977,908.22868 C 75.523104,915.75204 78.847843,921.4065 82.110284,927.43474 C 82.169018,925.43778 82.227752,923.44082 82.286486,921.44386 C 86.682584,928.77677 92.262325,935.42441 99.025707,940.82611 C 98.144695,938.88789 97.824356,937.51033 96.943344,935.57211 C 103.95937,941.36195 111.16229,945.22059 118.86358,947.70869 L 118.86358,953.03568 C 118.86358,954.0929 119.64139,954.21353 120.69859,954.21749 L 129.25067,954.24955 L 140.87117,951.46055 C 155.68791,953.22994 170.6206,954.20602 185.54105,953.68888 C 187.60916,956.768 191.29699,958.97495 194.17496,961.61799 C 195.99572,961.26558 197.81647,960.91318 199.63723,960.56077 C 183.97314,939.54638 161.85339,913.31987 145.23164,900.13406 C 128.60989,886.94826 121.39447,875.6883 99.906719,881.44593 C 97.990591,881.95935 97.457797,880.22069 98.320898,879.1553 C 104.96602,870.95276 116.18762,854.79631 120.33916,844.71186 C 124.46879,834.68065 120.57431,819.35858 109.77405,816.77967 C 99.032715,814.21484 90.270448,820.64166 89.863186,829.11384 C 93.005461,830.05358 95.883432,829.84801 99.025707,829.29004"
       style="opacity:1;color:#000000;fill:#ffffff;fill-opacity:1;fill-rule:evenodd;stroke:#000000;stroke-width:0.99921262;stroke-linecap:butt;stroke-linejoin:round;marker:none;marker-start:none;marker-mid:none;marker-end:none;stroke-miterlimit:4;stroke-dasharray:none;stroke-dashoffset:0;stroke-opacity:1;visibility:visible;display:inline;overflow:visible;enable-background:accumulate"
       id="path2242" />
    <path
       d="M 89.863186,24.783148 L 49.865258,56.499566 L 93.91584,35.355287 C 94.988614,31.259459 97.043291,28.145536 99.025707,24.95935 C 95.883032,25.166121 92.77377,25.27265 89.863186,24.783148 z "
       transform="translate(0,804.33069)"
       style="opacity:1;color:#000000;fill:#d80025;fill-opacity:1;fill-rule:evenodd;stroke:#000000;stroke-width:0.99921262;stroke-linecap:butt;stroke-linejoin:round;marker:none;marker-start:none;marker-mid:none;marker-end:none;stroke-miterlimit:4;stroke-dasharray:none;stroke-dashoffset:0;stroke-opacity:1;visibility:visible;display:inline;overflow:visible;enable-background:accumulate"
       id="path4189" />
    <path
       d="M 49.865258,56.499566 L 96.823178,28.219093"
       transform="translate(0,804.33069)"
       style="fill:none;fill-opacity:0.75;fill-rule:evenodd;stroke:#000000;stroke-width:1px;stroke-linecap:round;stroke-linejoin:miter;stroke-opacity:1"
       id="path4191" />
    <path
       d="M 120.60686,142.5005 L 130.94815,151.96963 L 141.41403,151.28437 C 141.91134,151.2518 143.37057,150.41471 142.41078,149.04168 L 137.9254,142.62509"
       transform="translate(0,804.33069)"
       style="opacity:1;color:#000000;fill:#ffffff;fill-opacity:1;fill-rule:evenodd;stroke:#000000;stroke-width:0.99921262;stroke-linecap:round;stroke-linejoin:round;marker:none;marker-start:none;marker-mid:none;marker-end:none;stroke-miterlimit:4;stroke-dasharray:none;stroke-dashoffset:0;stroke-opacity:1;visibility:visible;display:inline;overflow:visible;enable-background:accumulate"
       id="path4197" />
    <path
       d="M 127.12998,119.05139 C 138.02571,130.12104 160.50866,140.63002 179.81447,149.27009 C 169.74783,138.99605 158.18607,129.59416 147.49646,119.7562 L 137.24588,115.59393 L 142.28338,120.19671 C 149.23625,126.88441 156.25141,132.88684 163.51576,139.13846 C 155.23155,134.41932 147.44572,128.39195 140.34515,121.43012 L 128.64116,115.03862 L 127.12998,119.05139 z "
       transform="translate(0,804.33069)"
       style="opacity:1;color:#000000;fill:#000000;fill-opacity:1;fill-rule:evenodd;stroke:none;stroke-width:1px;stroke-linecap:butt;stroke-linejoin:miter;marker:none;marker-start:none;marker-mid:none;marker-end:none;stroke-miterlimit:4;stroke-dasharray:none;stroke-dashoffset:0;stroke-opacity:1;visibility:visible;display:inline;overflow:visible;enable-background:accumulate"
       id="path4201" />
    <path
       d="M 150.28783,119.42925 L 182.33426,149.47775 L 185.18865,149.27009 L 194.08104,157.12439 C 186.18211,148.36031 168.76825,131.05042 155.31895,117.88129 L 143.46983,113.15864 L 150.28783,119.42925 z "
       transform="translate(0,804.33069)"
       style="opacity:1;color:#000000;fill:#000000;fill-opacity:1;fill-rule:evenodd;stroke:none;stroke-width:1px;stroke-linecap:butt;stroke-linejoin:miter;marker:none;marker-start:none;marker-mid:none;marker-end:none;stroke-miterlimit:4;stroke-dasharray:none;stroke-dashoffset:0;stroke-opacity:1;visibility:visible;display:inline;overflow:visible;enable-background:accumulate"
       id="path5172" />
    <path
       d="M 157.79812,117.58172 L 196.98289,156.76649 L 198.47802,156.39271 L 161.41134,115.58822 L 152.06681,111.22744 L 157.79812,117.58172 z "
       transform="translate(0,804.33069)"
       style="opacity:1;color:#000000;fill:#000000;fill-opacity:1;fill-rule:evenodd;stroke:none;stroke-width:1px;stroke-linecap:butt;stroke-linejoin:miter;marker:none;marker-start:none;marker-mid:none;marker-end:none;stroke-miterlimit:4;stroke-dasharray:none;stroke-dashoffset:0;stroke-opacity:1;visibility:visible;display:inline;overflow:visible;enable-background:accumulate"
       id="path5174" />
    <path
       d="M 121.57075,224.9125 C 112.14393,219.97884 104.12305,220.41308 101.06715,226.94509 C 104.32689,227.78334 108.65746,225.18933 121.57075,224.9125 z "
       transform="translate(0,804.33069)"
       style="opacity:1;color:#000000;fill:#d80025;fill-opacity:1;fill-rule:evenodd;stroke:#000000;stroke-width:0.99921262;stroke-linecap:butt;stroke-linejoin:round;marker:none;marker-start:none;marker-mid:none;marker-end:none;stroke-miterlimit:4;stroke-dasharray:none;stroke-dashoffset:0;stroke-opacity:1;visibility:visible;display:inline;overflow:visible;enable-background:accumulate"
       id="path5178" />
    <path
       d="M 122.19008,150.05354 L 122.16427,175.58016 C 122.16213,177.70555 122.55896,176.99684 122.53806,178.32123 L 121.85279,221.74219 C 121.80548,224.73993 116.54157,224.86469 111.3582,224.7752 C 106.13078,224.68571 102.77758,227.95028 100.79643,232.45726 C 106.34793,227.66957 110.1293,231.30591 116.86904,227.82591 C 111.29744,229.58977 105.94207,230.82398 105.4064,236.94264 C 107.25652,235.22467 108.35699,234.67192 110.58148,234.69995 C 112.76203,234.72743 118.1404,228.48515 124.61265,228.5508 C 131.12894,228.61645 130.40797,229.92459 132.87529,229.65044 C 135.34705,229.37579 137.17713,230.33744 138.27651,231.57129 C 138.32057,226.99003 135.40459,225.19357 132.19408,225.23082 C 128.98378,225.26807 126.7173,225.09482 126.71195,221.36841 L 126.64966,177.94745 C 126.64909,177.55533 127.25401,176.85103 127.2972,176.12785 C 127.3404,175.40444 126.82186,174.66214 126.817,174.19451 L 126.56598,150.01781 L 122.19008,150.05354 z "
       transform="translate(0,804.33069)"
       style="opacity:1;color:#000000;fill:#d80025;fill-opacity:1;fill-rule:evenodd;stroke:#000000;stroke-width:0.99921262;stroke-linecap:butt;stroke-linejoin:round;marker:none;marker-start:none;marker-mid:none;marker-end:none;stroke-miterlimit:4;stroke-dasharray:none;stroke-dashoffset:0;stroke-opacity:1;visibility:visible;display:inline;overflow:visible;enable-background:accumulate"
       id="path5176" />
    <path
       d="M 134.61857,151.64882 L 148.97907,167.15462 C 149.5709,167.79366 149.50719,169.33547 148.62666,169.35716 L 94.973053,170.67867 C 90.796125,170.78155 78.956246,178.57204 76.648012,186.53688 C 78.05763,185.3622 79.122455,183.37138 80.876867,183.01284 C 81.904255,182.80288 83.433424,182.89098 84.27632,182.06952 L 91.625209,174.90753 L 84.27632,182.06952 C 82.33755,183.95899 82.797897,186.71119 84.31724,190.1446 C 84.559181,183.40525 88.61,186.26138 88.971486,183.25316 C 89.340353,180.18353 92.01247,178.75713 93.827738,177.11006 C 95.643006,175.46298 98.06113,175.68215 99.466213,177.46247 C 100.8713,179.24279 104.22368,181.13334 101.93305,185.74397 C 107.30722,181.69132 108.10013,178.51968 100.61153,174.73133 L 154.88184,174.20272 C 157.9623,174.17272 158.12636,169.79191 156.37957,167.94754 L 140.60945,151.29641"
       transform="translate(0,804.33069)"
       style="opacity:1;color:#000000;fill:#d80025;fill-opacity:1;fill-rule:evenodd;stroke:#000000;stroke-width:0.99921262;stroke-linecap:butt;stroke-linejoin:round;marker:none;marker-start:none;marker-mid:none;marker-end:none;stroke-miterlimit:4;stroke-dasharray:none;stroke-dashoffset:0;stroke-opacity:1;visibility:visible;display:inline;overflow:visible;enable-background:accumulate"
       id="path5180" />
    <path
       d="M 96.435647,94.158078 C 96.648342,103.71165 104.06868,110.41133 132.37288,121.24029 C 134.06688,121.8884 130.18181,117.78189 129.30079,116.37228 C 136.8012,121.27034 136.00821,122.59686 140.79991,122.0671 C 145.5812,121.53849 142.68531,120.09131 138.60624,116.19608 C 145.2401,120.94087 145.78305,121.20636 149.69768,121.09173 C 153.43626,120.98225 151.91289,118.91713 146.1486,114.21769 C 152.15063,119.53262 153.52349,120.02124 157.81141,118.97364 C 162.18242,117.90573 158.53393,116.31823 154.31393,113.53685 C 159.70428,117.24962 161.6646,118.43448 163.52501,117.01036 C 165.44049,115.5441 164.54696,115.17291 164.83768,114.34228"
       transform="translate(0,804.33069)"
       style="opacity:1;color:#000000;fill:#ffffff;fill-opacity:1;fill-rule:evenodd;stroke:#000000;stroke-width:0.99921262;stroke-linecap:round;stroke-linejoin:round;marker:none;marker-start:none;marker-mid:none;marker-end:none;stroke-miterlimit:4;stroke-dasharray:none;stroke-dashoffset:0;stroke-opacity:1;visibility:visible;display:inline;overflow:visible;enable-background:accumulate"
       id="path4199" />
    <path
       d="M 99.025707,829.29004 C 97.087481,831.31637 95.266724,835.60396 93.91584,839.68598 C 96.373309,840.04854 102.66968,840.20694 105.59681,839.75896 C 108.53585,839.30916 113.03951,836.29343 112.2044,828.65821"
       style="opacity:1;color:#000000;fill:#ffffff;fill-opacity:1;fill-rule:evenodd;stroke:#000000;stroke-width:0.99921262;stroke-linecap:round;stroke-linejoin:round;marker:none;marker-start:none;marker-mid:none;marker-end:none;stroke-miterlimit:4;stroke-dasharray:none;stroke-dashoffset:0;stroke-opacity:1;visibility:visible;display:inline;overflow:visible;enable-background:accumulate"
       id="path4195" />
    <path
       d="M 99.025707,24.95935 C 97.341515,19.012851 102.4302,18.536604 103.72268,19.777527 C 104.98363,20.988178 105.08706,25.519893 99.025707,24.95935 z "
       transform="translate(0,804.33069)"
       style="fill:#000000;fill-opacity:1;fill-rule:evenodd;stroke:none;stroke-width:1px;stroke-linecap:butt;stroke-linejoin:miter;stroke-opacity:1"
       id="path3218" />
  </g>
</svg>

<svg xmlns="http://www.w3.org/2000/svg" version="1.0" width="212.515" height="248.928"><path d="m14.644 802.311 3.828 160.79c2.734 114.85 200.126 114.85 202.86 0l3.827-160.79H14.644z" style="fill:#008bd1;fill-opacity:1;fill-rule:evenodd;stroke:#000;stroke-width:1.99999988;stroke-linecap:butt;stroke-miterlimit:4;stroke-dashoffset:0;stroke-opacity:1" transform="translate(-13.644 -801.311)"/><path d="M81.405 180.194c-2.128.553-2.603-.26-3.124-1.805-.494-1.467-2.499.494-3.13 2.51-1.324-8.588 13.42-9.34 19.558-10.22" transform="translate(-13.644 3.02)" style="opacity:1;color:#000;fill:#d80025;fill-opacity:1;fill-rule:evenodd;stroke:#000;stroke-width:.99921262;stroke-linecap:butt;stroke-linejoin:round;marker:none;marker-start:none;marker-mid:none;marker-end:none;stroke-miterlimit:4;stroke-dasharray:none;stroke-dashoffset:0;stroke-opacity:1;visibility:visible;display:inline;overflow:visible;enable-background:accumulate"/><path d="M105.597 839.759c-2.26 14.963-25.654 28.521-33.178 40.454 1.074-.091 2.453-1.093 3.649-1.939-2.748 5.594-4.555 10.683-6.116 16.21.77-.178 1.976-1.354 2.62-2.032-1.68 4.259-1.43 18.422-.681 22.12.954-1.99 1.41-4.229 2.114-6.343 1.518 7.523 4.843 13.178 8.105 19.206l.176-5.991c4.397 7.333 9.976 13.98 16.74 19.382-.881-1.938-1.202-3.316-2.083-5.254 7.016 5.79 14.22 9.649 21.92 12.137v5.327c0 1.057.778 1.178 1.836 1.181l8.552.033 11.62-2.79c14.817 1.77 29.75 2.746 44.67 2.229 2.068 3.079 5.756 5.286 8.634 7.929l5.462-1.057c-15.664-21.015-37.784-47.241-54.405-60.427-16.622-13.186-23.838-24.446-45.325-18.688-1.916.513-2.45-1.225-1.586-2.29 6.645-8.203 17.867-24.36 22.018-34.444 4.13-10.031.235-25.353-10.565-27.932-10.741-2.565-19.504 3.862-19.91 12.334 3.141.94 6.02.734 9.162.176" style="opacity:1;color:#000;fill:#fff;fill-opacity:1;fill-rule:evenodd;stroke:#000;stroke-width:.99921262;stroke-linecap:butt;stroke-linejoin:round;marker:none;marker-start:none;marker-mid:none;marker-end:none;stroke-miterlimit:4;stroke-dasharray:none;stroke-dashoffset:0;stroke-opacity:1;visibility:visible;display:inline;overflow:visible;enable-background:accumulate" transform="translate(-13.644 -801.311)"/><path d="M89.863 24.783 49.865 56.5l44.05-21.145c1.074-4.096 3.128-7.21 5.11-10.396-3.142.207-6.251.314-9.162-.176z" transform="translate(-13.644 3.02)" style="opacity:1;color:#000;fill:#d80025;fill-opacity:1;fill-rule:evenodd;stroke:#000;stroke-width:.99921262;stroke-linecap:butt;stroke-linejoin:round;marker:none;marker-start:none;marker-mid:none;marker-end:none;stroke-miterlimit:4;stroke-dasharray:none;stroke-dashoffset:0;stroke-opacity:1;visibility:visible;display:inline;overflow:visible;enable-background:accumulate"/><path d="m49.865 56.5 46.958-28.28" transform="translate(-13.644 3.02)" style="fill:none;fill-opacity:.75;fill-rule:evenodd;stroke:#000;stroke-width:1px;stroke-linecap:round;stroke-linejoin:miter;stroke-opacity:1"/><path d="m120.607 142.5 10.341 9.47 10.466-.686c.497-.032 1.957-.87.997-2.242l-4.486-6.417" transform="translate(-13.644 3.02)" style="opacity:1;color:#000;fill:#fff;fill-opacity:1;fill-rule:evenodd;stroke:#000;stroke-width:.99921262;stroke-linecap:round;stroke-linejoin:round;marker:none;marker-start:none;marker-mid:none;marker-end:none;stroke-miterlimit:4;stroke-dasharray:none;stroke-dashoffset:0;stroke-opacity:1;visibility:visible;display:inline;overflow:visible;enable-background:accumulate"/><path d="M127.13 119.051c10.896 11.07 33.379 21.579 52.684 30.22-10.066-10.275-21.628-19.677-32.318-29.515l-10.25-4.162 5.037 4.603c6.953 6.687 13.968 12.69 21.233 18.941-8.284-4.719-16.07-10.746-23.17-17.708l-11.705-6.391-1.511 4.012z" transform="translate(-13.644 3.02)" style="opacity:1;color:#000;fill:#000;fill-opacity:1;fill-rule:evenodd;stroke:none;stroke-width:1px;stroke-linecap:butt;stroke-linejoin:miter;marker:none;marker-start:none;marker-mid:none;marker-end:none;stroke-miterlimit:4;stroke-dasharray:none;stroke-dashoffset:0;stroke-opacity:1;visibility:visible;display:inline;overflow:visible;enable-background:accumulate"/><path d="m150.288 119.43 32.046 30.048 2.855-.208 8.892 7.854c-7.899-8.764-25.313-26.074-38.762-39.243l-11.85-4.722 6.819 6.27z" transform="translate(-13.644 3.02)" style="opacity:1;color:#000;fill:#000;fill-opacity:1;fill-rule:evenodd;stroke:none;stroke-width:1px;stroke-linecap:butt;stroke-linejoin:miter;marker:none;marker-start:none;marker-mid:none;marker-end:none;stroke-miterlimit:4;stroke-dasharray:none;stroke-dashoffset:0;stroke-opacity:1;visibility:visible;display:inline;overflow:visible;enable-background:accumulate"/><path d="m157.798 117.582 39.185 39.184 1.495-.373-37.067-40.805-9.344-4.36 5.731 6.354z" transform="translate(-13.644 3.02)" style="opacity:1;color:#000;fill:#000;fill-opacity:1;fill-rule:evenodd;stroke:none;stroke-width:1px;stroke-linecap:butt;stroke-linejoin:miter;marker:none;marker-start:none;marker-mid:none;marker-end:none;stroke-miterlimit:4;stroke-dasharray:none;stroke-dashoffset:0;stroke-opacity:1;visibility:visible;display:inline;overflow:visible;enable-background:accumulate"/><path d="M121.57 224.912c-9.426-4.933-17.447-4.499-20.503 2.033 3.26.838 7.59-1.756 20.504-2.032z" transform="translate(-13.644 3.02)" style="opacity:1;color:#000;fill:#d80025;fill-opacity:1;fill-rule:evenodd;stroke:#000;stroke-width:.99921262;stroke-linecap:butt;stroke-linejoin:round;marker:none;marker-start:none;marker-mid:none;marker-end:none;stroke-miterlimit:4;stroke-dasharray:none;stroke-dashoffset:0;stroke-opacity:1;visibility:visible;display:inline;overflow:visible;enable-background:accumulate"/><path d="m122.19 150.054-.026 25.526c-.002 2.126.395 1.417.374 2.741l-.685 43.421c-.048 2.998-5.311 3.123-10.495 3.033-5.227-.09-8.58 3.175-10.562 7.682 5.552-4.787 9.333-1.151 16.073-4.631-5.572 1.764-10.927 2.998-11.463 9.117 1.85-1.718 2.951-2.271 5.175-2.243 2.181.027 7.56-6.215 14.032-6.15 6.516.066 5.795 1.375 8.262 1.1 2.472-.274 4.302.687 5.402 1.921.044-4.581-2.872-6.377-6.083-6.34-3.21.037-5.477-.136-5.482-3.863l-.062-43.42c0-.393.604-1.097.647-1.82.043-.724-.475-1.466-.48-1.933l-.251-24.177-4.376.036z" transform="translate(-13.644 3.02)" style="opacity:1;color:#000;fill:#d80025;fill-opacity:1;fill-rule:evenodd;stroke:#000;stroke-width:.99921262;stroke-linecap:butt;stroke-linejoin:round;marker:none;marker-start:none;marker-mid:none;marker-end:none;stroke-miterlimit:4;stroke-dasharray:none;stroke-dashoffset:0;stroke-opacity:1;visibility:visible;display:inline;overflow:visible;enable-background:accumulate"/><path d="m134.619 151.649 14.36 15.506c.592.639.528 2.18-.352 2.202l-53.654 1.322c-4.177.103-16.017 7.893-18.325 15.858 1.41-1.175 2.474-3.166 4.229-3.524 1.027-.21 2.556-.122 3.4-.943l7.348-7.162-7.349 7.162c-1.938 1.889-1.478 4.641.041 8.075.242-6.74 4.293-3.884 4.654-6.892.37-3.07 3.041-4.496 4.857-6.143 1.815-1.647 4.233-1.428 5.638.352 1.405 1.78 4.758 3.671 2.467 8.282 5.374-4.053 6.167-7.224-1.321-11.013l54.27-.528c3.08-.03 3.244-4.411 1.498-6.255l-15.77-16.652" transform="translate(-13.644 3.02)" style="opacity:1;color:#000;fill:#d80025;fill-opacity:1;fill-rule:evenodd;stroke:#000;stroke-width:.99921262;stroke-linecap:butt;stroke-linejoin:round;marker:none;marker-start:none;marker-mid:none;marker-end:none;stroke-miterlimit:4;stroke-dasharray:none;stroke-dashoffset:0;stroke-opacity:1;visibility:visible;display:inline;overflow:visible;enable-background:accumulate"/><path d="M96.436 94.158c.212 9.554 7.633 16.253 35.937 27.082 1.694.648-2.191-3.458-3.072-4.868 7.5 4.898 6.707 6.225 11.499 5.695 4.781-.529 1.885-1.976-2.194-5.87 6.634 4.744 7.177 5.01 11.092 4.895 3.738-.11 2.215-2.175-3.55-6.874 6.003 5.315 7.375 5.803 11.663 4.756 4.371-1.068.723-2.656-3.497-5.437 5.39 3.713 7.35 4.897 9.211 3.473 1.915-1.466 1.022-1.837 1.313-2.668" transform="translate(-13.644 3.02)" style="opacity:1;color:#000;fill:#fff;fill-opacity:1;fill-rule:evenodd;stroke:#000;stroke-width:.99921262;stroke-linecap:round;stroke-linejoin:round;marker:none;marker-start:none;marker-mid:none;marker-end:none;stroke-miterlimit:4;stroke-dasharray:none;stroke-dashoffset:0;stroke-opacity:1;visibility:visible;display:inline;overflow:visible;enable-background:accumulate"/><path d="M99.026 829.29c-1.939 2.026-3.76 6.314-5.11 10.396 2.457.363 8.754.52 11.68.073 2.94-.45 7.444-3.466 6.608-11.1" style="opacity:1;color:#000;fill:#fff;fill-opacity:1;fill-rule:evenodd;stroke:#000;stroke-width:.99921262;stroke-linecap:round;stroke-linejoin:round;marker:none;marker-start:none;marker-mid:none;marker-end:none;stroke-miterlimit:4;stroke-dasharray:none;stroke-dashoffset:0;stroke-opacity:1;visibility:visible;display:inline;overflow:visible;enable-background:accumulate" transform="translate(-13.644 -801.311)"/><path d="M99.026 24.96c-1.684-5.947 3.404-6.423 4.697-5.182 1.26 1.21 1.364 5.742-4.697 5.181z" transform="translate(-13.644 3.02)" style="fill:#000;fill-opacity:1;fill-rule:evenodd;stroke:none;stroke-width:1px;stroke-linecap:butt;stroke-linejoin:miter;stroke-opacity:1"/></svg>
